resources/dark/controls/E.svg

<svg xmlns="http://www.w3.org/2000/svg" viewBox="0 0 16 16"><defs><style>.a,.icon-canvas-transparent{fill:#f6f6f6}.icon-canvas-transparent{opacity:0}.b{fill:#424242}.c{fill:#1ba1e2}.icon-vs-fg{fill:#f0eff1}</style></defs><title>ListBox_16x</title><path class="icon-canvas-transparent" d="M16 16H0V0h16z"/><path class="a" d="M10 9h5v4h-5z"/><path class="a" d="M0 0h16v15H0z"/><path class="b" d="M1 1v13h14v-1H2V2h13V1H1z"/><path class="b" d="M3 10h5v1H3zM10 7h5v1h-5zM3 8h4v1H3zM3 4h4v1H3zM3 6h6v1H3zM14 10h-3l1.5 2 1.5-2zM12.5 3.031L11.017 5H14l-1.5-1.969z"/><path class="b" d="M1 1v13h14v-1H2V2h13V1H1z"/><path class="b" d="M3 10h5v1H3zM10 7h5v1h-5zM3 8h4v1H3zM3 4h4v1H3zM3 6h6v1H3zM14 10h-3l1.5 2 1.5-2z"/><path class="c" d="M12.5 3.031L11.017 5H14l-1.5-1.969z"/><path class="c" d="M15 9h-5v4h5zm-2.5 3L11 10h3zM10 6h5V2h-5zm2.5-2.969L14 5h-2.983z"/><path class="icon-vs-fg" d="M12.5 12L11 10h3zm0-8.969L11.017 5H14zM10 7v1h5v1h-5v4H2V2h8v4h5v1zM3 5h4V4H3zm0 4h4V8H3zm5 1H3v1h5zm1-4H3v1h6z"/></svg>

<svg xmlns="http://www.w3.org/2000/svg" viewBox="0 0 16 15"><defs><style>.cls-1{fill:#f6f6f6;}.cls-2{fill:#424242;}.cls-3{fill:#1ba1e2;}</style></defs><title>ListBox_16x_1</title><g id="Layer_2" data-name="Layer 2"><g id="Layer_1-2" data-name="Layer 1"><path class="cls-1" d="M10,9h5v4H10Z"/><path class="cls-2" d="M0,0H16V15H0Z"/><path class="cls-2" d="M1,1V14H15V13H2V2H15V1Z"/><path class="cls-2" d="M3,10H8v1H3Zm7-3h5V8H10ZM3,8H7V9H3ZM3,4H7V5H3ZM3,6H9V7H3Zm11,4H11l1.5,2ZM12.5,3,11,5h3Z"/><path class="cls-1" d="M1,1V14H15V13H2V2H15V1Z"/><path class="cls-1" d="M3,10H8v1H3Zm7-3h5V8H10ZM3,8H7V9H3ZM3,4H7V5H3ZM3,6H9V7H3Zm11,4H11l1.5,2Z"/><path class="cls-3" d="M12.5,3,11,5h3Z"/><path class="cls-3" d="M15,9H10v4h5Zm-2.5,3L11,10h3ZM10,6h5V2H10Zm2.5-3L14,5H11Z"/><polygon class="cls-1" points="12.5 12 11 10 14 10 12.5 12"/><polygon class="cls-1" points="12.5 3 11 5 14 5 12.5 3"/><polygon class="cls-2" points="10 7 10 8 15 8 15 9 10 9 10 13 2 13 2 2 10 2 10 6 15 6 15 7 10 7"/><rect class="cls-1" x="3" y="4" width="4" height="1"/><rect class="cls-1" x="3" y="8" width="4" height="1"/><rect class="cls-1" x="3" y="10" width="5" height="1"/><rect class="cls-1" x="3" y="6" width="6" height="1"/></g></g></svg>
